imagestudio/img/cover/Group-1.svg

<svg width="25" height="28" viewBox="0 0 25 28" fill="none" xmlns="http://www.w3.org/2000/svg">
<path d="M2.9841 15.8861H9.13659H9.1386V9.41633C7.08817 9.41633 5.03613 9.41633 2.9841 9.41633V15.8861V15.8861ZM1.77999 20.9937H10.2344V18.4832C10.2344 18.182 10.1085 17.9048 9.91152 17.7079V17.7059C9.85095 17.6449 9.77996 17.59 9.70535 17.5446H2.30904C2.23243 17.59 2.16344 17.6449 2.10248 17.7059L2.10047 17.7079C1.90353 17.9048 1.77999 18.18 1.77999 18.4832V20.9937ZM10.2344 22.4934H1.77999V23.4673H10.2344V22.4934ZM10.2344 24.9666H1.77999V25.1335C1.77999 25.4347 1.90353 25.7123 2.10047 25.9088H2.10248C2.29902 26.1054 2.57658 26.2317 2.87781 26.2317H9.13659C9.43782 26.2317 9.71498 26.1054 9.91152 25.9088C10.1085 25.7123 10.2344 25.4347 10.2344 25.1335V24.9666ZM14.7243 20.5806H23.1792V9.38544C23.1792 9.08382 23.0532 8.80666 22.8563 8.61012V8.60811C22.6597 8.41117 22.3822 8.28723 22.0813 8.28723H15.8226C15.5193 8.28723 15.2438 8.41117 15.0472 8.60811L15.0452 8.61012C14.8487 8.80666 14.7243 9.08181 14.7243 9.38544V20.5806V20.5806ZM23.1792 22.0799H14.7243V23.0542H23.1792V22.0799ZM23.1792 24.5535H14.7243V25.1315C14.7243 25.4327 14.8487 25.7103 15.0452 25.9068H15.0472C15.2438 26.1038 15.5213 26.2297 15.8226 26.2297H22.0813C22.3822 26.2297 22.6597 26.1038 22.8563 25.9068C23.0532 25.7103 23.1792 25.4327 23.1792 25.1315V24.5535ZM15.8226 6.78791H22.0813C22.7933 6.78791 23.4447 7.08112 23.9128 7.55121H23.9148C24.3833 8.01969 24.6785 8.66868 24.6785 9.38544V25.1315C24.6785 25.8438 24.3833 26.4972 23.9148 26.9653C23.4467 27.4338 22.7933 27.729 22.0813 27.729H15.8226C15.1062 27.729 14.4568 27.4338 13.9887 26.9653V26.9633C13.5182 26.4952 13.225 25.8438 13.225 25.1315V9.38544C13.225 8.67269 13.5182 8.02371 13.9887 7.55321L13.9907 7.55121C14.4608 7.08112 15.1102 6.78791 15.8226 6.78791V6.78791ZM4.08953 5.25891C4.98279 5.08403 5.87042 4.6725 6.55109 4.08449C7.26305 3.4684 7.74718 2.65376 7.7552 1.72521C7.59957 1.75489 7.464 1.8688 7.35009 1.9751L4.08953 5.03269V5.25891V5.25891ZM8.1547 4.58426C7.96578 4.80848 7.7572 5.01905 7.53098 5.21399C6.57676 6.03825 5.32332 6.58937 4.08953 6.77828V7.91741H8.1547V4.58426V4.58426ZM2.25169 7.91741H2.59022V4.71021C2.59022 4.47596 2.69651 4.26739 2.86577 4.12981L6.32648 0.885303C7.87713 -0.584332 9.65401 0.599719 9.65401 2.60482V7.91741H9.88826C10.3347 7.91741 10.6379 8.27159 10.6379 8.70598V16.3702C10.7558 16.4549 10.8661 16.5471 10.9684 16.6494H10.9704C11.4385 17.1179 11.7337 17.7669 11.7337 18.4832V25.1335C11.7337 25.8458 11.4385 26.4992 10.9704 26.9673C10.5019 27.4358 9.84895 27.731 9.13659 27.731H2.87781C2.16144 27.731 1.51206 27.4358 1.04397 26.9673V26.9653C0.573478 26.4972 0.280273 25.8458 0.280273 25.1335V18.4832C0.280273 17.7709 0.573478 17.1219 1.04397 16.6514L1.04598 16.6494C1.17994 16.5154 1.32514 16.3975 1.48478 16.2952V8.66667C1.48478 8.14925 1.7836 7.91741 2.25169 7.91741V7.91741Z" fill="#CA9E55"/>
</svg>

<svg width="25" height="28" fill="none" xmlns="http://www.w3.org/2000/svg"><path d="M2.984 15.886H9.14v-6.47H2.984v6.47zM1.78 20.994h8.454v-2.51a1.1 1.1 0 00-.322-.776v-.002a1.095 1.095 0 00-.207-.161H2.31c-.077.045-.146.1-.207.16l-.002.003c-.196.197-.32.472-.32.775v2.51zm8.454 1.5H1.78v.973h8.454v-.974zm0 2.473H1.78v.167c0 .3.124.578.32.775h.002c.197.196.475.323.776.323h6.259a1.1 1.1 0 001.097-1.098v-.167zm4.49-4.386h8.455V9.385a1.1 1.1 0 00-.323-.775v-.002a1.098 1.098 0 00-.775-.32h-6.258c-.304 0-.58.123-.776.32l-.002.002c-.196.197-.32.472-.32.775v11.196zm8.455 1.499h-8.455v.974h8.455v-.974zm0 2.474h-8.455v.578c0 .3.125.578.321.775h.002a1.1 1.1 0 00.776.323h6.258a1.1 1.1 0 001.098-1.099v-.578zM15.823 6.788h6.258c.712 0 1.364.293 1.832.763h.002a2.59 2.59 0 01.764 1.834v15.746c0 .713-.296 1.366-.764 1.834a2.597 2.597 0 01-1.834.764h-6.258a2.59 2.59 0 01-1.834-.764v-.002a2.584 2.584 0 01-.764-1.832V9.385c0-.712.293-1.361.764-1.832l.002-.002a2.59 2.59 0 011.832-.763zM4.09 5.258c.893-.174 1.78-.585 2.461-1.174.712-.616 1.196-1.43 1.204-2.359-.155.03-.291.144-.405.25L4.09 5.033v.226zm4.065-.674a5.568 5.568 0 01-.624.63c-.954.824-2.208 1.375-3.441 1.564v1.14h4.065V4.583zM2.252 7.917h.338V4.71c0-.234.107-.443.276-.58L6.326.885C7.877-.585 9.654.6 9.654 2.605v5.312h.234c.447 0 .75.355.75.789v7.664c.118.085.228.177.33.28h.002a2.59 2.59 0 01.764 1.833v6.65c0 .713-.296 1.366-.764 1.834a2.598 2.598 0 01-1.833.764h-6.26a2.59 2.59 0 01-1.833-.764v-.002a2.584 2.584 0 01-.764-1.831v-6.65c0-.713.293-1.362.764-1.833l.002-.002c.134-.134.28-.252.439-.354V8.667c0-.518.299-.75.767-.75z" fill="#CA9E55"/></svg>
